icons/Suru/scalable/actions/view-dual-symbolic.svg

<svg xmlns="http://www.w3.org/2000/svg" height="16" width="16"><path d="M0 3v9c0 2 1 2 3 2h3c.975 0 1.602.8 1.602.8l.39.518.4-.51s.652-.793 1.612-.808H13c2 0 3 0 3-2V3c0-2-1-2-3-2h-3c-1.036 0-1.635.465-2 .82C7.635 1.465 7.036 1 6 1H3C1 1 0 1 0 3zm1 0c0-1 1-1 2-1h3c.983 0 1.6.799 1.6.799l.4.535.4-.535S9.017 2 10 2h3c1 0 2 0 2 1v9c0 1-1 1-2 1H9.992c-1.025.015-1.624.478-1.988.824A2.791 2.791 0 006 13H3c-1 0-2 0-2-1zm1 1v1h4V4zm7 0v1h4V4zM2 6v1h4V6zm7 0v1h4V6zM2 8v1h4V8zm7 0v1h4V8zm-7 2v1h4v-1zm7 0v1h4v-1z" style="line-height:normal;font-variant-ligatures:none;font-variant-position:normal;font-variant-caps:normal;font-variant-numeric:normal;font-variant-alternates:normal;font-feature-settings:normal;text-indent:0;text-align:start;text-decoration-line:none;text-decoration-style:solid;text-decoration-color:#000;text-transform:none;shape-padding:0;isolation:auto;mix-blend-mode:normal;marker:none" color="#000" font-weight="400" font-family="sans-serif" overflow="visible" fill="gray"/></svg>

<?xml version="1.0" encoding="UTF-8" standalone="no"?>
<svg
   xmlns:dc="http://purl.org/dc/elements/1.1/"
   xmlns:cc="http://creativecommons.org/ns#"
   xmlns:rdf="http://www.w3.org/1999/02/22-rdf-syntax-ns#"
   xmlns:svg="http://www.w3.org/2000/svg"
   xmlns="http://www.w3.org/2000/svg"
   xmlns:sodipodi="http://sodipodi.sourceforge.net/DTD/sodipodi-0.dtd"
   xmlns:inkscape="http://www.inkscape.org/namespaces/inkscape"
   height="16"
   width="16"
   version="1.1"
   id="svg4"
   sodipodi:docname="view-dual-symbolic.svg"
   inkscape:version="1.0.1 (3bc2e813f5, 2020-09-07)">
  <metadata
     id="metadata10">
    <rdf:RDF>
      <cc:Work
         rdf:about="">
        <dc:format>image/svg+xml</dc:format>
        <dc:type
           rdf:resource="http://purl.org/dc/dcmitype/StillImage" />
      </cc:Work>
    </rdf:RDF>
  </metadata>
  <defs
     id="defs8" />
  <sodipodi:namedview
     pagecolor="#ffffff"
     bordercolor="#666666"
     borderopacity="1"
     objecttolerance="10"
     gridtolerance="10"
     guidetolerance="10"
     inkscape:pageopacity="0"
     inkscape:pageshadow="2"
     inkscape:window-width="1920"
     inkscape:window-height="1011"
     id="namedview6"
     showgrid="true"
     inkscape:zoom="50.5"
     inkscape:cx="8.8759282"
     inkscape:cy="6.8871442"
     inkscape:window-x="0"
     inkscape:window-y="0"
     inkscape:window-maximized="1"
     inkscape:current-layer="svg4">
    <inkscape:grid
       type="xygrid"
       id="grid835" />
  </sodipodi:namedview>
  <path
     d="m 0,3 v 9 c 0,2 1,2 3,2 h 3 c 0.975,0 1.602,0.8 1.602,0.8 l 0.39,0.518 0.4,-0.51 c 0,0 0.652,-0.793 1.612,-0.808 L 13,14 c 2,0 3,0 3,-2 V 3 C 16,1 15,1 13,1 H 10 C 8.964,1 8.365,1.465 8,1.82 7.635,1.465 7.036,1 6,1 H 3 C 1,1 0,1 0,3 Z M 1,3 C 1,2 2,2 3,2 H 6 C 6.983,2 7.6,2.799 7.6,2.799 L 8,3.334 8.4,2.799 C 8.4,2.799 9.017,2 10,2 h 3 c 1,0 2,0 2,1 v 9 c 0,1 -1,1 -2,1 H 9.992 C 8.967,13.015 8.368,13.478 8.004,13.824 7.4742287,13.290659 6.7517104,12.993576 6,13 H 3 C 2,13 1,13 1,12 Z M 2,4 V 5 H 6 V 4 Z m 7,0 v 1 h 4 V 4 Z M 2,6 V 7 H 6 V 6 Z m 7,0 v 1 h 4 V 6 Z M 2,8 V 9 H 6 V 8 Z m 7,0 v 1 h 4 V 8 Z m -7,2 v 1 h 4 v -1 z m 7,0 v 1 h 4 v -1 z"
     style="line-height:normal;font-variant-ligatures:none;font-variant-position:normal;font-variant-caps:normal;font-variant-numeric:normal;font-variant-alternates:normal;font-feature-settings:normal;text-indent:0;text-align:start;text-decoration:none;text-decoration-line:none;text-decoration-style:solid;text-decoration-color:#000000;text-transform:none;shape-padding:0;isolation:auto;mix-blend-mode:normal;marker:none"
     color="#000000"
     font-weight="400"
     font-family="sans-serif"
     white-space="normal"
     overflow="visible"
     fill="#808080"
     id="path2"
     sodipodi:nodetypes="cccsccccccccscsccccscccscccccccccccccccccccccccccccccccccccccccccccccccccc" />
</svg>
